images/pages/about/twitter.svg

<svg xmlns="http://www.w3.org/2000/svg" viewBox="0 0 21 17" width="21" height="17"><defs><clipPath clipPathUnits="userSpaceOnUse" id="cp1"><path d="M-819-1912H621v4804H-819z"/></clipPath></defs><style></style><g id="Homepage" clip-path="url(#cp1)"><g id="Group 11329"><g id="Group 11328"><path id="Path 3" d="M18.35 4c.25 5.68-4.5 12-12 12-2.28 0-4.22.15-6-1 2.14.25 4.3-.67 6-2-1.77-.03-3.49-1.4-4-3 .63.12 1.43.15 2 0-1.95-.39-3.04-2.13-3-4 .54.3 1.34-.02 2 0-1.8-1.2-3.06-3.18-2-5 1.99 2.44 5.64 3.83 9 4-.59-2.53 1.39-5 4-5 1.16 0 2.26 1.21 3 2 .92-.18 1.22-.54 2-1-.3.94-1.17 1.5-2 2 .81-.1 2.27-.68 3-1-.54.81-1.21 1.43-2 2z" fill="#6187d3"/></g></g></g></svg>

<svg xmlns="http://www.w3.org/2000/svg" viewBox="0 0 21 17" width="21" height="17">
	<defs>
		<clipPath clipPathUnits="userSpaceOnUse" id="cp1">
			<path d="M-819 -1912L621 -1912L621 2892L-819 2892Z" />
		</clipPath>
	</defs>
	<style>
		tspan { white-space:pre }
		.shp0 { fill: #6187d3 } 
	</style>
	<g id="Homepage " clip-path="url(#cp1)">
		<g id="Group 11329">
			<g id="Group 11328">
				<path id="Path 3" class="shp0" d="M18.35 4C18.6 9.68 13.85 16 6.35 16C4.07 16 2.13 16.15 0.35 15C2.49 15.25 4.65 14.33 6.35 13C4.58 12.97 2.86 11.6 2.35 10C2.98 10.12 3.78 10.15 4.35 10C2.4 9.61 1.31 7.87 1.35 6C1.89 6.3 2.69 5.98 3.35 6C1.55 4.8 0.29 2.82 1.35 1C3.34 3.44 6.99 4.83 10.35 5C9.76 2.47 11.74 0 14.35 0C15.51 0 16.61 1.21 17.35 2C18.27 1.82 18.57 1.46 19.35 1C19.05 1.94 18.18 2.5 17.35 3C18.16 2.9 19.62 2.32 20.35 2C19.81 2.81 19.14 3.43 18.35 4Z" />
			</g>
		</g>
	</g>
</svg>
